public/assets/img/casestudies/wellmee/portfolio_poster.svg

<svg fill="none" height="558" viewBox="0 0 558 558" width="558" xmlns="http://www.w3.org/2000/svg"><path clip-rule="evenodd" d="m558 4.39598v-4.39598h-2.299c.778 1.46461 1.544 2.93 2.299 4.39598zm-8.703-4.39598c26.349 255.594-39.98 366.009-53.303 385.282-.588.851-1.821.406-1.659-.616 4.218-26.732 26.604-190.629-40.502-291.7322-.563-.8493-1.864-.3515-1.791.6653 12.051 166.6229.759 259.1259-64.849 363.5629-.578.92-2.003.374-1.833-.699 16.894-106.324 11.999-173.17-23.079-262.095-.381-.966-1.808-.757-1.926.274-18.362 160.397-32.384 248.182-134.701 355.071-.762.796-2.07.017-1.637-.996 1.499-3.498 3.16-7.279 4.937-11.323 21.012-47.825 58.256-132.597 35.468-224.185-.259-1.041-1.763-.904-1.955.151-42.81 235.448-258.82581 238.898-247.4336 213.308.0209-.047.0491-.099.0776-.141 18.8261-28.302 43.3698-81.977 48.6486-93.683.3739-.83-.4942-1.64-1.3319-1.285-20.9195 8.859-41.7021 15.82-62.4277 21.209v-452.768z" fill="#00b5a3" fill-rule="evenodd"/></svg>

<svg width="558" height="558" viewBox="0 0 558 558" fill="none" xmlns="http://www.w3.org/2000/svg">
<path fill-rule="evenodd" clip-rule="evenodd" d="M558 4.39598V0H555.701C556.479 1.46461 557.245 2.93 558 4.39598ZM549.297 0C575.646 255.594 509.317 366.009 495.994 385.282C495.406 386.133 494.173 385.688 494.335 384.666C498.553 357.934 520.939 194.037 453.833 92.9338C453.27 92.0845 451.969 92.5823 452.042 93.5991C464.093 260.222 452.801 352.725 387.193 457.162C386.615 458.082 385.19 457.536 385.36 456.463C402.254 350.139 397.359 283.293 362.281 194.368C361.9 193.402 360.473 193.611 360.355 194.642C341.993 355.039 327.971 442.824 225.654 549.713C224.892 550.509 223.584 549.73 224.017 548.717C225.516 545.219 227.177 541.438 228.954 537.394C249.966 489.569 287.21 404.797 264.422 313.209C264.163 312.168 262.659 312.305 262.467 313.36C219.657 548.808 3.64119 552.258 15.0334 526.668C15.0543 526.621 15.0825 526.569 15.111 526.527C33.9371 498.225 58.4808 444.55 63.7596 432.844C64.1335 432.014 63.2654 431.204 62.4277 431.559C41.5082 440.418 20.7256 447.379 0 452.768V0H549.297Z" fill="#00B5A3"/>
</svg>
